X: 149123
T: KILLIECRANKIE
Q: "Slow."
%R: air, march, reel
B: James Kerr "Merry Melodies" v.1 p.49 s.1 #23
Z: 2016 John Chambers <jc:trillian.mit.edu>
M: 2/4
L: 1/16
K: D
(FG) |\
A3BA2F2 | AFAB A3F | AGFE DEFG | A4 A2FA |\
B3dB2 (AB) | d2B2B2 (3(ABc) | d3e f2(ed) | B4 B2fa |\
b2af a2fe | f2ed e2f2 |
ud3uB ABdF | A4 A2dc |\
B2AB d2Bd | e2e2 Hf3e | d3B ABdF | (TE4 D2) ||\
(fg) |\
a3ba2f2 | afab a3f | agfe defg | a4 a2fa |\
b3d'b2a2 |
babd' b2a2 | b2af e2fa | b4 b2fa |\
bafb afea | gfed e2f2 | d3B ABdF | A4 A2dc |\
B2AB d2Bd | e2ee Hf3e | d2B2 ABdF | (TE4 D2) |]

%%sep 1 1 500
%%sep 1 1 500

